packages/components/bolt-icons/src/svgs/utility/asset-video.svg

<?xml version="1.0" encoding="UTF-8" standalone="no"?>
<svg width="24px" height="24px" viewBox="0 0 24 24" version="1.1" xmlns="http://www.w3.org/2000/svg" xmlns:xlink="http://www.w3.org/1999/xlink">
    <!-- Generator: Sketch 46.2 (44496) - http://www.bohemiancoding.com/sketch -->
    <title>Icon/utility/Indigo/24px/Video</title>
    <desc>Created with Sketch.</desc>
    <defs></defs>
    <g id="Symbols" stroke="none" stroke-width="1" fill="none" fill-rule="evenodd">
        <g id="Icon/utility/Indigo/24px/Video">
            <rect id="Rectangle-6" x="0" y="0" width="24" height="24"></rect>
            <path d="M21.9143,15.5353 L17.4473,12.3473 L21.9143,9.1583 L21.9143,15.5363 L21.9143,15.5353 Z M14.6093,17.5643 C14.6093,18.1383 14.1413,18.6073 13.5663,18.6073 L3.1313,18.6073 C2.5573,18.6073 2.0883,18.1383 2.0883,17.5643 L2.0883,7.1293 C2.0883,6.5563 2.5573,6.0863 3.1313,6.0863 L13.5663,6.0863 C14.1413,6.0863 14.6093,6.5563 14.6093,7.1293 L14.6093,17.5643 Z M23.4343,6.2043 C23.0883,6.0273 22.6713,6.0543 22.3513,6.2823 L16.6953,10.3193 L16.6953,7.1303 C16.6953,5.4023 15.2933,4.0003 13.5653,4.0003 L3.1303,4.0003 C1.4023,4.0003 -0.0007,5.4023 -0.0007,7.1303 L-0.0007,17.5653 C-0.0007,19.2933 1.4023,20.6953 3.1303,20.6953 L13.5653,20.6953 C15.2933,20.6953 16.6953,19.2933 16.6953,17.5653 L16.6953,14.3763 L22.3513,18.4133 C22.5333,18.5443 22.7423,18.6093 22.9573,18.6093 C23.1193,18.6093 23.2823,18.5713 23.4333,18.4933 C23.7783,18.3163 24.0003,17.9573 24.0003,17.5663 L24.0003,7.1313 C24.0003,6.7403 23.7853,6.3813 23.4333,6.2053 L23.4343,6.2043 Z" id="Video" fill="#1F2555"></path>
        </g>
    </g>
</svg>

<?xml version="1.0" encoding="utf-8"?>
<!-- Generator: Adobe Illustrator 24.0.3, SVG Export Plug-In . SVG Version: 6.00 Build 0)  -->
<svg version="1.1" id="Layer_1" xmlns="http://www.w3.org/2000/svg" xmlns:xlink="http://www.w3.org/1999/xlink" x="0px" y="0px"
	 viewBox="0 0 24 24" enable-background="new 0 0 24 24" xml:space="preserve">
<path id="Video" fill-rule="evenodd" clip-rule="evenodd" d="M21.9,15.5l-4.5-3.2l4.5-3.2V15.5L21.9,15.5z M14.6,17.6
	c0,0.6-0.5,1-1,1H3.1c-0.6,0-1-0.5-1-1V7.1c0-0.6,0.5-1,1-1h10.4c0.6,0,1,0.5,1,1v10.5H14.6z M23.4,6.2C23.1,6,22.6,6,22.3,6.3
	l-5.7,4V7.1c0-1.7-1.4-3.1-3.1-3.1H3.1C1.4,4,0,5.4,0,7.1v10.4c0,1.7,1.4,3.1,3.1,3.1h10.4c1.7,0,3.1-1.4,3.1-3.1v-3.2l5.7,4
	c0.2,0.1,0.4,0.2,0.6,0.2s0.3,0,0.5-0.1c0.3-0.2,0.6-0.5,0.6-0.9V7.1C24,6.7,23.8,6.4,23.4,6.2L23.4,6.2z"/>
</svg>
